packages/foundations/assets/icons/functional/images/medical/mask_16.svg

<svg width="16" height="16" viewBox="0 0 16 16" fill="none" xmlns="http://www.w3.org/2000/svg">
<g clip-path="url(#clip0_186_219)">
<path fill-rule="evenodd" clip-rule="evenodd" d="M3.25702 9.60542C4.23574 8.978 6.21826 8.35058 8.00003 8.35058C10.2335 8.35058 11.8647 9.07838 12.8434 9.60542H13.597C14.0236 9.60542 14.4001 9.95668 14.4001 10.4085C14.4001 10.8601 14.0236 11.2115 13.597 11.2115H12.9689C12.1407 13.1689 10.1582 14.4488 8.00003 14.3986C5.84183 14.3734 3.85931 13.1689 3.03117 11.2115H2.40302C1.95131 11.2115 1.59998 10.8601 1.59998 10.4085C1.59998 9.95668 1.95131 9.60542 2.40302 9.60542H3.25702ZM2.45398 6.94525C2.45398 3.98409 4.9635 1.6 8.05022 1.6C11.1369 1.6 13.6465 3.98409 13.6465 6.94525C13.6465 7.39704 13.2951 7.7483 12.8434 7.7483C12.3917 7.7483 12.0404 7.39704 12.0404 6.94525C12.0404 4.88752 10.2586 3.23115 8.05022 3.23115C5.86693 3.23115 4.08517 4.88752 4.08517 6.94525C4.08517 7.39704 3.70874 7.7483 3.25702 7.7483C2.8304 7.7483 2.45398 7.39704 2.45398 6.94525ZM4.61217 10.7849C5.26464 12.0647 6.5696 12.7925 8.00003 12.8176C9.43045 12.8427 10.7354 12.0898 11.3879 10.81C10.3088 10.2578 9.15441 9.98181 8.00003 9.95668C6.84564 9.98181 5.74145 10.3081 4.61217 10.7849Z" fill="#1A1C1F"/>
</g>
<defs>
<clipPath id="clip0_186_219">
<rect width="16" height="16" fill="white"/>
</clipPath>
</defs>
</svg>

<svg xmlns="http://www.w3.org/2000/svg" width="16" height="16" fill="none"><g clip-path="url(#a)"><path fill="#1A1C1F" fill-rule="evenodd" d="M3.257 9.605C4.236 8.978 6.218 8.351 8 8.351c2.233 0 3.865.727 4.843 1.254h.754c.427 0 .803.352.803.803a.81.81 0 0 1-.803.803h-.628C12.14 13.17 10.159 14.45 8 14.4c-2.158-.026-4.14-1.23-4.969-3.187h-.628a.793.793 0 0 1-.803-.803c0-.452.351-.804.803-.804zm-.803-2.66c0-2.96 2.51-5.345 5.596-5.345s5.596 2.384 5.596 5.345a.793.793 0 0 1-.803.803.793.793 0 0 1-.803-.803c0-2.057-1.781-3.714-3.99-3.714-2.183 0-3.965 1.657-3.965 3.714a.814.814 0 0 1-.828.803.81.81 0 0 1-.803-.803m2.158 3.84c.653 1.28 1.958 2.008 3.388 2.033s2.735-.728 3.388-2.008A7.8 7.8 0 0 0 8 9.957c-1.154.025-2.259.351-3.388.828" clip-rule="evenodd"/></g><defs><clipPath id="a"><path fill="#fff" d="M0 0h16v16H0z"/></clipPath></defs></svg>
